X: 74
T:Priest's Boots
R:Jig
S:A Mick Moloney album
Z:Added by alf.warnock@rogers.com
M:6/8
L:1/8
K:D
fg|afa geg|fdf ecA|dcd fed|cAc efg|
afa geg|fdf ecA|dcd fef|gec d2:|
cd|efe efe|efd cBA|dcd fed|cAc ecd|
efe efe|efd cBA|dcd fef|gec d2:|

